build/svg/cmd/lc_zoompanning.svg

<svg xmlns="http://www.w3.org/2000/svg" viewBox="0 0 24 24"><path d="M12 2.5l-3 4h6l-3-4zM11.5 7v4.5H7v1h4.5V17h1v-4.5H17v-1h-4.5V7h-1zm-5 2l-4 3 4 3V9zm11 0v6l4-3-4-3zM9 17.5l3 4 3-4H9z" fill="#e95420" stroke="#e95420" stroke-linecap="round" stroke-linejoin="round"/></svg>

<?xml version="1.0" encoding="UTF-8" standalone="no"?>
<svg
   xmlns:dc="http://purl.org/dc/elements/1.1/"
   xmlns:cc="http://creativecommons.org/ns#"
   xmlns:rdf="http://www.w3.org/1999/02/22-rdf-syntax-ns#"
   xmlns:svg="http://www.w3.org/2000/svg"
   xmlns="http://www.w3.org/2000/svg"
   xmlns:sodipodi="http://sodipodi.sourceforge.net/DTD/sodipodi-0.dtd"
   xmlns:inkscape="http://www.inkscape.org/namespaces/inkscape"
   viewBox="0 0 24 24"
   version="1.1"
   id="svg4"
   sodipodi:docname="lc_zoompanning.svg"
   inkscape:export-filename="/home/jupiter007/Libreoffice yaru theme fullcolor/build/cmd/lc_zoompanning.png"
   inkscape:export-xdpi="96"
   inkscape:export-ydpi="96"
   inkscape:version="0.92.5 (2060ec1f9f, 2020-04-08)">
  <metadata
     id="metadata10">
    <rdf:RDF>
      <cc:Work
         rdf:about="">
        <dc:format>image/svg+xml</dc:format>
        <dc:type
           rdf:resource="http://purl.org/dc/dcmitype/StillImage" />
      </cc:Work>
    </rdf:RDF>
  </metadata>
  <defs
     id="defs8" />
  <sodipodi:namedview
     pagecolor="#ffffff"
     bordercolor="#666666"
     borderopacity="1"
     objecttolerance="10"
     gridtolerance="10"
     guidetolerance="10"
     inkscape:pageopacity="0"
     inkscape:pageshadow="2"
     inkscape:window-width="1920"
     inkscape:window-height="1011"
     id="namedview6"
     showgrid="true"
     inkscape:zoom="19.666667"
     inkscape:cx="7.4914887"
     inkscape:cy="14.171942"
     inkscape:window-x="0"
     inkscape:window-y="32"
     inkscape:window-maximized="1"
     inkscape:current-layer="svg4">
    <inkscape:grid
       type="xygrid"
       id="grid835" />
  </sodipodi:namedview>
  <path
     style="fill:#e95420;fill-opacity:1;stroke:#e95420;stroke-linecap:round;stroke-linejoin:round;stroke-opacity:1"
     d="M 12 2.5 L 9 6.5 L 15 6.5 L 12 2.5 z M 11.5 7 L 11.5 11.5 L 7 11.5 L 7 12.5 L 11.5 12.5 L 11.5 17 L 12.5 17 L 12.5 12.5 L 17 12.5 L 17 11.5 L 12.5 11.5 L 12.5 7 L 11.5 7 z M 6.5 9 L 2.5 12 L 6.5 15 L 6.5 9 z M 17.5 9 L 17.5 15 L 21.5 12 L 17.5 9 z M 9 17.5 L 12 21.5 L 15 17.5 L 9 17.5 z "
     id="path22" />
</svg>
